sites/Makheev/images/logofooter.svg

<svg width="263" height="85" viewBox="0 0 263 85" fill="none" xmlns="http://www.w3.org/2000/svg">
<g clip-path="url(#clip0_1_216)">
<path d="M82.667 4.69229C80.3753 9.26089 74.7067 22.3655 72.8976 39.6782C72.1739 45.5693 73.0182 49.0558 70.7266 50.3783L70.9679 51.0996C74.7067 49.6569 78.4456 48.575 82.1844 47.4929L82.0639 46.6512C80.4959 46.531 80.8578 40.3995 80.8578 37.6342C80.8578 34.6286 81.2196 30.6612 86.1646 28.497C87.0089 28.1364 87.9738 27.7758 89.0592 27.6555V40.6399C89.0592 43.4051 88.818 44.4872 87.3707 45.3287L87.6119 46.2906C91.3507 45.4491 95.0897 44.6074 98.9492 43.8861L98.8286 42.9243C97.2606 42.9243 97.14 41.3613 97.14 39.077C97.14 30.06 97.14 21.1634 97.14 12.1463C97.2606 6.25525 96.2957 2.52822 100.879 1.44618V0.484375C93.8835 0.484375 86.8882 0.484375 80.0136 0.484375V1.44618C81.8227 1.56642 83.1493 2.8889 82.667 4.69229ZM88.9386 9.02045C88.9386 13.1081 88.9386 16.9554 88.9386 21.043C87.3707 21.2836 84.5967 22.1251 83.1493 22.9667C84.4761 18.2779 86.4058 13.1081 88.9386 9.02045Z" fill="#CC2F26"/>
<path d="M157.571 5.77433V37.7545C157.571 38.9567 157.209 41.2411 155.883 41.6018L155.762 42.5636C163.964 43.6456 171.441 44.9681 178.919 47.012L179.16 46.1704C179.039 44.367 178.436 42.4434 178.075 40.5197C177.351 41.6018 174.456 41.722 172.285 41.1209C167.1 39.6782 165.773 38.5961 165.291 36.0713C165.291 29.2185 165.291 21.7644 165.291 14.9115C167.341 13.7093 170.236 13.7093 175.059 16.4744C175.059 14.0699 175.059 11.7856 175.059 9.38112H165.291V5.77433C168.065 4.69229 172.406 5.05298 176.748 6.49569C177.351 4.69229 178.316 3.24958 178.919 1.44618V0.484375C170.839 0.484375 162.878 0.484375 154.797 0.484375V1.44618C157.089 2.28776 157.451 3.3698 157.571 5.77433Z" fill="#CC2F26"/>
<path d="M132.602 5.77433V36.1917C132.602 38.3557 132.361 39.6782 131.155 40.159V41.1209C138.753 41.1209 146.472 41.4816 154.07 42.3232L154.192 41.3613L152.502 36.0713C149.849 39.077 140.321 37.6342 140.201 33.0656C140.201 26.2128 140.201 21.6442 140.201 14.7913C142.251 13.589 145.145 13.589 149.97 16.3542C149.97 13.9497 149.97 11.6654 149.97 9.26089H140.321V5.65411C144.06 4.45185 147.919 5.29342 151.779 6.37546C152.383 4.57206 153.346 3.12935 153.949 1.32596V0.484375C145.869 0.484375 137.788 0.484375 129.828 0.484375V1.44618C132.24 2.28776 132.482 3.3698 132.602 5.77433Z" fill="#CC2F26"/>
<path d="M182.532 5.77371C182.532 18.0368 182.532 30.2999 182.532 42.563C182.532 44.3663 182.291 46.4101 180.361 46.4101L179.999 47.2518C187.717 49.2956 195.678 52.181 202.915 55.5475C205.086 56.2688 205.086 52.181 204.844 50.2574C203.397 25.8515 198.934 23.4469 194.351 16.8345C201.588 9.50072 201.105 3.24895 198.934 1.20511C197.728 0.243295 196.04 0.483748 194.23 0.483748C189.285 0.483748 184.824 0.483748 179.758 0.483748V1.44556C182.41 2.04669 182.532 3.48941 182.532 5.77371ZM190.25 6.13438C190.491 4.09054 194.592 3.85009 195.316 6.13438C195.557 10.3423 193.386 14.1895 190.25 16.4739C190.25 13.1075 190.25 9.62095 190.25 6.13438ZM190.25 20.5615C191.094 20.0806 191.336 19.5998 192.059 19.1188C197.125 25.4909 197.849 33.7864 198.211 41.9619C198.331 43.7653 198.934 46.7709 196.763 47.2518C195.075 47.1316 190.491 46.4101 190.25 44.727C190.25 36.6719 190.25 28.4965 190.25 20.5615Z" fill="#CC2F26"/>
<path d="M207.02 5.77433V51.0996C207.02 54.1053 206.538 55.7884 204.849 55.4278L204.487 56.2694C210.999 59.3953 218.116 63.2425 223.664 68.0515C227.403 70.0954 229.936 66.3683 229.936 59.2751C229.936 46.8917 226.076 37.3938 219.201 27.4151C216.789 23.9284 214.859 21.524 214.738 20.2015C214.738 10.5834 214.738 13.589 214.738 5.89456C214.98 3.24958 216.668 2.04732 219.201 1.44618C219.322 1.44618 219.322 1.44618 219.442 1.44618C219.442 1.08551 219.442 0.845053 219.442 0.484375C200.507 0.484375 219.684 0.484375 200.748 0.484375C200.748 1.80686 200.507 0.724826 202.075 6.49569C202.919 5.41365 205.452 4.81252 207.02 5.77433ZM214.738 26.2128C216.548 28.9781 217.995 31.7433 219.201 34.5084C223.784 45.4491 223.664 55.7884 223.664 58.0728C223.664 59.3953 223.302 59.7559 222.337 59.8762C220.89 59.8762 216.668 57.5919 214.859 55.0671C214.738 46.4108 214.738 33.6669 214.738 26.2128Z" fill="#CC2F26"/>
<path d="M100.039 42.6838L100.28 43.6456C104.502 42.9243 108.723 42.3232 113.186 41.9624L113.065 41.0007C111.738 40.6399 112.1 38.4759 112.1 37.1534C112.1 28.7376 112.824 23.2072 115.115 17.6767C117.045 23.0869 117.889 28.6173 118.13 36.6725C118.13 37.995 118.372 40.159 117.045 40.7601V41.722C121.025 41.3613 125.126 41.2411 129.227 41.1209V40.159C127.659 39.9186 127.538 37.995 126.935 36.3119C124.04 24.0487 123.437 18.0375 120.543 12.3868C125.729 5.53388 123.317 2.28776 128.623 1.44618V0.484375C125.246 0.484375 120.301 0.484375 116.924 0.484375V1.44618C117.648 1.44618 118.13 1.80686 118.251 3.00913C118.13 6.37546 117.648 7.93841 115.115 10.2227C112.582 7.93841 112.1 6.37546 111.979 3.00913C111.979 1.80686 112.703 1.68663 113.306 1.44618V0.484375C109.929 0.484375 104.984 0.484375 101.486 0.484375V1.44618C103.296 1.80686 104.863 2.76868 105.708 5.17319C106.552 7.93841 107.999 10.3429 109.567 12.3868C107.155 17.5565 106.311 24.2892 102.692 38.3557C102.089 40.5197 102.089 41.8422 100.039 42.6838Z" fill="#CC2F26"/>
<path d="M40.215 75.6258C39.9738 74.9045 39.8532 74.0628 39.8532 73.3415C39.8532 68.2921 45.0394 64.8054 50.1049 64.8054C53.1202 64.8054 56.1354 65.6471 58.0651 68.0515C77.845 57.3514 98.4691 50.1379 131.275 50.1379C153.587 50.1379 175.901 54.2255 193.509 62.401C211.721 71.418 224.385 83.9214 239.943 83.9214C254.898 83.9214 262.376 72.4999 262.376 61.1987C262.257 48.2142 252.246 39.1972 242.597 39.1972C238.618 39.1972 232.587 41.2411 232.587 45.0883C232.587 49.4165 239.22 55.1873 239.22 58.6739C239.22 60.4772 238.375 61.6795 237.531 62.401C236.445 63.4829 234.879 65.1662 234.879 66.6089C234.879 67.6908 235.963 68.7729 237.169 68.7729C237.893 68.7729 238.858 68.4123 239.581 67.0898C241.149 64.565 241.632 62.401 241.632 60.5976C241.632 57.7122 240.426 55.548 240.426 53.5042C240.426 50.0177 244.285 48.6952 246.818 48.6952C253.933 48.6952 256.466 59.1549 256.466 62.5212C256.466 72.1392 247.663 78.9922 237.772 78.9922C227.039 78.9922 213.047 65.8875 193.992 57.5919C175.296 49.4165 153.709 45.5693 134.531 45.5693C109.083 45.5693 88.338 48.9356 65.543 59.1549C62.7688 60.2368 59.7537 61.0785 56.9797 61.0785C52.6377 61.0785 49.0195 59.0347 48.2958 52.7828C48.2958 49.176 48.2958 44.4872 48.2958 39.4378C48.2958 32.1039 48.2958 24.169 48.1752 18.879C49.502 23.4476 52.9996 34.9894 54.3263 39.6782C56.3766 32.705 58.0651 25.732 60.8391 18.879V45.2085C60.4774 49.6569 58.5476 53.6244 56.9797 56.2694L57.2209 57.1109C61.0804 54.9469 65.543 53.0233 70.2467 51.2198L70.0055 50.4985C69.0405 50.1379 68.4376 49.6569 68.4376 46.1704C68.4376 41.2411 68.4376 10.4632 68.4376 5.6541C68.5582 3.00913 70.9704 1.92709 74.2267 1.20573V0.484375C68.5582 0.484375 63.7339 0.484375 57.9445 0.484375V1.44618C59.6331 1.92709 60.2362 2.64845 60.2362 3.49003C60.2362 4.09116 59.9948 4.93275 59.6331 5.77433C57.8239 10.8238 56.1354 15.8733 54.3263 20.9228C52.9996 15.8733 51.6729 10.9441 50.3462 5.89456C50.1049 4.93275 49.9843 4.21139 49.9843 3.61026C49.9843 2.52822 50.5874 2.04732 51.914 1.44618V0.484375H34.4258V1.44618C36.838 2.04732 39.3707 3.24958 40.6975 4.93275C40.9387 5.29342 41.1798 5.77433 41.1798 6.25523C41.3006 7.57772 41.3006 9.26089 41.3006 11.1845C41.3006 30.6612 36.1144 79.4731 16.9374 79.4731C11.0276 79.4731 4.9972 74.3034 4.9972 66.8493C4.9972 58.9143 10.907 53.6244 15.1284 52.7828C17.1788 52.3019 19.1085 53.8648 19.1085 55.9086C19.1085 58.9143 17.2994 63.6033 16.0932 68.7729C15.9726 69.2538 15.852 69.855 15.852 70.4561C15.852 72.7405 16.9374 74.9045 18.9879 74.9045C20.3145 74.9045 21.2794 74.3034 21.2794 72.8607C21.2794 71.6584 20.5557 70.2157 19.1085 69.374C18.7466 68.6527 18.626 67.9313 18.626 67.21C18.626 64.9256 20.1939 62.5212 23.3298 59.756C27.7924 56.2694 30.0839 51.7008 30.0839 48.3344C30.0839 45.6895 28.6365 43.7658 25.5007 43.7658C20.0733 43.6456 0.414062 51.7008 0.414062 67.6908C0.414062 77.7899 8.25364 85.0035 18.023 85.0035C25.9831 85.0035 34.0639 80.6754 40.215 75.6258Z" fill="#CC2F26"/>
</g>
<defs>
<clipPath id="clip0_1_216">
<rect width="262.083" height="85" fill="white" transform="translate(0.414062)"/>
</clipPath>
</defs>
</svg>

<svg width="263" height="85" fill="none" xmlns="http://www.w3.org/2000/svg"><g clip-path="url(#a)" fill="#CC2F26"><path d="M82.667 4.692c-2.292 4.569-7.96 17.674-9.77 34.986-.723 5.891.121 9.378-2.17 10.7l.24.722c3.74-1.443 7.479-2.525 11.217-3.607l-.12-.842c-1.568-.12-1.206-6.252-1.206-9.017 0-3.005.362-6.973 5.307-9.137.844-.36 1.809-.721 2.894-.841V40.64c0 2.765-.241 3.847-1.688 4.689l.24.962c3.74-.842 7.479-1.684 11.338-2.405l-.12-.962c-1.568 0-1.689-1.563-1.689-3.847v-26.93c.12-5.892-.844-9.619 3.739-10.7V.483H80.014v.962c1.809.12 3.135 1.443 2.653 3.246Zm6.272 4.328v12.023c-1.568.24-4.342 1.082-5.79 1.924 1.327-4.69 3.257-9.859 5.79-13.947ZM157.571 5.774v31.98c0 1.203-.362 3.487-1.688 3.848l-.121.962c8.202 1.082 15.679 2.404 23.157 4.448l.241-.842c-.121-1.803-.724-3.727-1.085-5.65-.724 1.082-3.619 1.202-5.79.6-5.185-1.442-6.512-2.524-6.994-5.049v-21.16c2.05-1.202 4.945-1.202 9.768 1.563V9.381h-9.768V5.774c2.774-1.082 7.115-.721 11.457.722.603-1.804 1.568-3.246 2.171-5.05V.484h-24.122v.962c2.292.842 2.654 1.924 2.774 4.328ZM132.602 5.774v30.418c0 2.164-.241 3.486-1.447 3.967v.962c7.598 0 15.317.36 22.915 1.202l.122-.962-1.69-5.29c-2.653 3.006-12.181 1.563-12.301-3.005V14.79c2.05-1.202 4.944-1.202 9.769 1.563V9.261h-9.649V5.654c3.739-1.202 7.598-.36 11.458.721.604-1.803 1.567-3.246 2.17-5.049V.484h-24.121v.962c2.412.842 2.654 1.924 2.774 4.328ZM182.532 5.774v36.789c0 1.803-.241 3.847-2.171 3.847l-.362.842a140.936 140.936 0 0 1 22.916 8.295c2.171.722 2.171-3.366 1.929-5.29-1.447-24.405-5.91-26.81-10.493-33.422 7.237-7.334 6.754-13.586 4.583-15.63-1.206-.962-2.894-.721-4.704-.721h-14.472v.962c2.652.6 2.774 2.043 2.774 4.328Zm7.718.36c.241-2.043 4.342-2.284 5.066 0 .241 4.208-1.93 8.056-5.066 10.34V6.134Zm0 14.427c.844-.48 1.086-.961 1.809-1.442 5.066 6.372 5.79 14.667 6.152 22.843.12 1.803.723 4.809-1.448 5.29-1.688-.12-6.272-.842-6.513-2.525V20.562Z"/><path d="M207.02 5.774V51.1c0 3.005-.482 4.688-2.171 4.328l-.362.841c6.512 3.126 13.629 6.974 19.177 11.783 3.739 2.043 6.272-1.684 6.272-8.777 0-12.383-3.86-21.881-10.735-31.86-2.412-3.487-4.342-5.891-4.463-7.213V5.894c.242-2.645 1.93-3.848 4.463-4.449h.241V.484h-18.694c0 1.323-.241.24 1.327 6.012.844-1.082 3.377-1.683 4.945-.722Zm7.718 20.439a55.689 55.689 0 0 1 4.463 8.295c4.583 10.941 4.463 21.28 4.463 23.565 0 1.322-.362 1.683-1.327 1.803-1.447 0-5.669-2.284-7.478-4.809-.121-8.656-.121-21.4-.121-28.854ZM100.039 42.684l.241.962c4.222-.722 8.443-1.323 12.906-1.684l-.121-.961c-1.327-.361-.965-2.525-.965-3.848 0-8.415.724-13.946 3.015-19.476 1.93 5.41 2.774 10.94 3.015 18.995 0 1.323.242 3.487-1.085 4.088v.962c3.98-.36 8.081-.48 12.182-.601v-.962c-1.568-.24-1.689-2.164-2.292-3.847-2.895-12.263-3.498-18.274-6.392-23.925 5.186-6.853 2.774-10.1 8.08-10.94V.483h-11.699v.962c.724 0 1.206.36 1.327 1.563-.121 3.366-.603 4.93-3.136 7.214-2.533-2.285-3.015-3.848-3.136-7.214 0-1.202.724-1.322 1.327-1.563V.484h-11.82v.962c1.81.36 3.377 1.323 4.222 3.727.844 2.765 2.291 5.17 3.859 7.214-2.412 5.17-3.256 11.902-6.875 25.969-.603 2.164-.603 3.486-2.653 4.328Z"/><path d="M40.215 75.626a7.528 7.528 0 0 1-.362-2.285c0-5.049 5.186-8.536 10.252-8.536 3.015 0 6.03.842 7.96 3.246 19.78-10.7 40.404-17.913 73.21-17.913 22.312 0 44.626 4.087 62.234 12.263 18.212 9.017 30.876 21.52 46.434 21.52 14.955 0 22.433-11.421 22.433-22.722-.119-12.985-10.13-22.002-19.779-22.002-3.979 0-10.01 2.044-10.01 5.891 0 4.328 6.633 10.1 6.633 13.586 0 1.803-.845 3.005-1.689 3.727-1.086 1.082-2.652 2.765-2.652 4.208 0 1.082 1.084 2.164 2.29 2.164.724 0 1.689-.36 2.412-1.683 1.568-2.525 2.051-4.689 2.051-6.492 0-2.886-1.206-5.05-1.206-7.094 0-3.486 3.859-4.809 6.392-4.809 7.115 0 9.648 10.46 9.648 13.826 0 9.618-8.803 16.471-18.694 16.471-10.733 0-24.725-13.105-43.78-21.4-18.696-8.175-40.283-12.023-59.461-12.023-25.448 0-46.193 3.367-68.988 13.586-2.774 1.082-5.79 1.923-8.563 1.923-4.342 0-7.96-2.043-8.684-8.295V39.438c0-7.334 0-15.269-.12-20.559 1.326 4.569 4.824 16.11 6.15 20.8 2.05-6.974 3.74-13.947 6.513-20.8v26.33c-.362 4.448-2.291 8.415-3.86 11.06l.242.842c3.86-2.164 8.322-4.088 13.026-5.891l-.242-.721c-.965-.361-1.567-.842-1.567-4.329V5.654c.12-2.645 2.532-3.727 5.789-4.448V.484H57.944v.962c1.69.481 2.292 1.202 2.292 2.044 0 .601-.241 1.443-.603 2.284-1.81 5.05-3.498 10.1-5.307 15.149-1.326-5.05-2.653-9.979-3.98-15.028-.241-.962-.362-1.684-.362-2.285 0-1.082.603-1.563 1.93-2.164V.484H34.426v.962c2.412.601 4.945 1.804 6.271 3.487.242.36.483.841.483 1.322.12 1.323.12 3.006.12 4.93 0 19.476-5.186 68.288-24.363 68.288-5.91 0-11.94-5.17-11.94-12.624 0-7.935 5.91-13.225 10.131-14.066 2.05-.481 3.98 1.082 3.98 3.126 0 3.005-1.809 7.694-3.015 12.864-.12.48-.241 1.082-.241 1.683 0 2.284 1.085 4.448 3.136 4.448 1.326 0 2.291-.6 2.291-2.043 0-1.203-.723-2.645-2.17-3.487-.362-.721-.483-1.443-.483-2.164 0-2.284 1.568-4.689 4.704-7.454 4.462-3.487 6.754-8.055 6.754-11.422 0-2.645-1.447-4.568-4.583-4.568C20.073 43.646.414 51.7.414 67.69c0 10.099 7.84 17.313 17.609 17.313 7.96 0 16.04-4.329 22.192-9.378Z"/></g><defs><clipPath id="a"><path fill="#fff" transform="translate(.414)" d="M0 0h262.083v85H0z"/></clipPath></defs></svg>
